public/logos/CY.svg

<?xml version="1.0" encoding="UTF-8"?>
<svg xmlns="http://www.w3.org/2000/svg" xmlns:xlink="http://www.w3.org/1999/xlink" width="176pt" height="59pt" viewBox="0 0 176 59" version="1.1">
<g id="surface1">
<rect x="0" y="0" width="176" height="59" style="fill:rgb(94.139099%,97.65625%,98.4375%);fill-opacity:1;stroke:none;"/>
<path style=" stroke:none;fill-rule:nonzero;fill:rgb(11.376953%,23.535156%,20.384216%);fill-opacity:1;" d="M 86.898438 46.050781 L 86.898438 30.675781 L 84.777344 30.675781 L 84.777344 41.832031 C 84.777344 44.289062 84.433594 45.074219 83.449219 46.175781 C 82.503906 47.234375 81.140625 47.652344 79.585938 47.652344 C 76.789062 47.652344 74.929688 45.886719 74.964844 41.734375 C 75.007812 36.71875 80.003906 32.304688 80.003906 32.304688 L 80.003906 30.671875 L 74.207031 30.671875 L 74.207031 32.304688 L 78.023438 32.304688 C 77.910156 32.441406 72.84375 36.882812 72.84375 42.421875 C 72.84375 45.265625 73.933594 49.394531 79.214844 49.394531 C 81.410156 49.394531 83.816406 48.300781 85.003906 46.039062 C 84.851562 49.324219 87.5 49.265625 88.8125 48.820312 L 88.8125 47.386719 C 88.097656 47.582031 86.898438 47.734375 86.898438 46.050781 Z M 95.863281 34.957031 C 95.863281 33.101562 97.089844 32.082031 99.820312 32.082031 C 101.410156 32.082031 103.191406 32.496094 104.136719 32.953125 L 104.136719 31.019531 C 102.964844 30.601562 101.371094 30.335938 99.96875 30.335938 C 96.671875 30.335938 93.679688 31.777344 93.679688 35.109375 C 93.679688 41.015625 103.125 39.460938 103.125 44.507812 C 103.125 46.175781 102.054688 47.632812 98.910156 47.632812 C 97.128906 47.632812 95.082031 47.140625 93.53125 46.269531 L 93.53125 48.257812 C 95.007812 48.902344 96.976562 49.394531 98.796875 49.394531 C 103.039062 49.394531 105.273438 47.195312 105.273438 44.28125 C 105.273438 38.214844 95.863281 39.425781 95.863281 34.957031 Z M 63.515625 33.40625 L 63.136719 30.675781 L 59.058594 30.675781 L 59.058594 32.304688 L 61.507812 32.304688 L 61.507812 49.054688 L 63.628906 49.054688 L 63.628906 37.675781 C 63.628906 32.378906 66.242188 32.269531 68.136719 32.269531 C 68.515625 32.269531 68.894531 32.304688 69.160156 32.34375 L 69.160156 30.410156 C 68.894531 30.375 68.441406 30.335938 68.175781 30.335938 C 66.054688 30.335938 64.425781 31.472656 63.515625 33.40625 M 46.691406 47.632812 C 46.117188 47.632812 44.296875 47.542969 43.054688 47.351562 L 43.054688 37.238281 C 43.054688 33.769531 44.589844 31.964844 48.09375 31.964844 C 51.65625 31.964844 53.359375 34.539062 53.359375 39.617188 C 53.359375 44.46875 51.957031 47.632812 46.691406 47.632812 Z M 48.285156 30.335938 C 46.769531 30.335938 45.554688 30.675781 44.648438 31.246094 C 43.925781 31.699219 43.28125 32.34375 42.941406 32.949219 L 42.675781 30.675781 L 38.484375 30.675781 L 38.484375 32.304688 L 40.933594 32.304688 L 40.933594 57.222656 L 43.054688 57.222656 L 43.054688 48.976562 C 44.191406 49.207031 45.480469 49.394531 46.730469 49.394531 C 53.019531 49.394531 55.519531 45.453125 55.519531 39.582031 C 55.519531 34.085938 53.097656 30.335938 48.285156 30.335938 M 9.019531 29.285156 C 11.628906 29.285156 13.316406 30.808594 13.984375 32.980469 L 15.828125 32.480469 C 15.566406 31.394531 14.957031 30.261719 14.304688 29.566406 C 13.042969 28.21875 11.21875 27.523438 9.042969 27.523438 C 3.433594 27.523438 0 31.785156 0 38.394531 C 0 45.308594 3 49.394531 9.128906 49.394531 C 11.347656 49.394531 13.71875 48.566406 14.933594 47.65625 L 14.933594 45.570312 C 13.363281 46.769531 11.128906 47.476562 9.480469 47.476562 C 4.175781 47.476562 2.160156 43.828125 2.160156 38.351562 C 2.160156 32.4375 4.820312 29.285156 9.019531 29.285156 Z M 33.65625 48.933594 C 33.65625 52.382812 33.542969 53.636719 32.484375 55.152344 C 31.082031 57.160156 28.429688 57.804688 26.195312 57.804688 C 24.222656 57.804688 21.875 57.386719 20.511719 56.707031 L 20.511719 54.960938 C 21.910156 55.683594 24.414062 56.175781 26.042969 56.175781 C 27.9375 56.175781 29.527344 55.605469 30.511719 54.355469 C 31.308594 53.332031 31.535156 52.492188 31.535156 49.613281 L 31.535156 46.703125 C 30.285156 48.75 28.050781 49.394531 25.816406 49.394531 C 23.917969 49.394531 22.140625 48.675781 21.078125 47.574219 C 19.753906 46.210938 19.601562 44.242188 19.601562 42.421875 L 19.601562 30.675781 L 21.722656 30.675781 L 21.722656 42.273438 C 21.722656 44.355469 21.910156 45.492188 22.820312 46.4375 C 23.617188 47.273438 24.832031 47.652344 26.230469 47.652344 C 27.785156 47.652344 29.261719 47.234375 30.210938 46.175781 C 31.195312 45.074219 31.535156 43.671875 31.535156 41.285156 L 31.535156 30.675781 L 33.65625 30.675781 L 33.65625 48.933594 "/>
<path style=" stroke:none;fill-rule:nonzero;fill:rgb(0%,43.530273%,38.426208%);fill-opacity:1;" d="M 94.601562 53.726562 C 94.511719 53.660156 94.359375 53.617188 94.199219 53.617188 C 93.300781 53.617188 92.355469 54.617188 92.355469 55.828125 C 92.355469 56.417969 92.625 56.710938 93.074219 56.710938 C 93.410156 56.710938 93.660156 56.578125 93.847656 56.367188 C 94.039062 56.140625 94.148438 55.8125 94.230469 55.433594 Z M 94.878906 56.257812 C 94.863281 56.34375 94.847656 56.453125 94.847656 56.5 C 94.847656 56.621094 94.914062 56.671875 95.039062 56.671875 C 95.15625 56.671875 95.351562 56.601562 95.445312 56.550781 L 95.335938 57.082031 C 95.15625 57.183594 94.914062 57.257812 94.6875 57.257812 C 94.394531 57.257812 94.105469 57.125 94.03125 56.8125 C 93.785156 57.082031 93.359375 57.292969 92.871094 57.292969 C 92.03125 57.292969 91.515625 56.710938 91.515625 55.84375 C 91.515625 54.433594 92.675781 53.0625 94.242188 53.0625 C 94.519531 53.0625 94.863281 53.128906 95.097656 53.253906 L 95.554688 53.136719 Z M 88.78125 55.59375 C 88.679688 55.796875 88.5625 56.132812 88.503906 56.367188 C 88.53125 56.097656 88.519531 55.8125 88.496094 55.59375 L 88.253906 53.136719 L 87.496094 53.136719 L 87.59375 54.027344 L 86.753906 55.585938 C 86.628906 55.820312 86.492188 56.140625 86.425781 56.367188 C 86.425781 56.140625 86.417969 55.804688 86.394531 55.601562 L 86.105469 53.136719 L 85.300781 53.136719 L 85.839844 57.21875 L 86.460938 57.21875 L 87.695312 54.96875 L 87.949219 57.21875 L 88.589844 57.21875 L 90.742188 53.136719 L 90.042969 53.136719 Z M 99.84375 54.820312 C 99.71875 55.398438 99.582031 55.863281 99.363281 56.175781 C 99.164062 56.460938 98.851562 56.652344 98.496094 56.652344 C 98.304688 56.652344 98.128906 56.601562 98.027344 56.5 C 97.917969 56.394531 97.867188 56.242188 97.867188 56.0625 C 97.867188 55.921875 97.910156 55.695312 97.96875 55.417969 L 98.457031 53.136719 L 97.632812 53.136719 L 97.144531 55.398438 C 97.085938 55.6875 97.035156 55.957031 97.035156 56.164062 C 97.035156 56.484375 97.175781 56.75 97.378906 56.929688 C 97.582031 57.109375 97.890625 57.261719 98.28125 57.261719 C 98.652344 57.261719 99.171875 57.074219 99.40625 56.828125 L 99.332031 57.175781 C 99.253906 57.535156 99.085938 57.882812 98.84375 58.125 C 98.691406 58.277344 98.496094 58.371094 98.277344 58.414062 C 98.199219 58.425781 98.113281 58.4375 98.019531 58.4375 C 97.609375 58.4375 97.144531 58.328125 96.808594 58.082031 L 96.683594 58.671875 C 97.027344 58.890625 97.496094 58.988281 97.917969 59 C 97.929688 59 97.941406 59 97.953125 59 C 97.960938 59 97.96875 59 97.976562 59 C 98.722656 59 99.507812 58.65625 99.882812 57.980469 C 100.039062 57.699219 100.109375 57.375 100.175781 57.0625 C 100.175781 57.058594 101.03125 53.136719 101.03125 53.136719 L 100.203125 53.136719 Z M 104.285156 53.617188 C 104.621094 53.617188 105.027344 53.71875 105.285156 53.851562 L 105.402344 53.289062 C 105.152344 53.164062 104.6875 53.0625 104.328125 53.0625 C 103.328125 53.0625 102.59375 53.574219 102.59375 54.324219 C 102.59375 54.914062 103.050781 55.199219 103.535156 55.417969 C 104.09375 55.667969 104.335938 55.8125 104.335938 56.113281 C 104.335938 56.460938 104 56.730469 103.402344 56.730469 C 102.988281 56.730469 102.527344 56.621094 102.191406 56.375 L 102.066406 56.964844 C 102.425781 57.191406 102.921875 57.292969 103.359375 57.292969 C 104.386719 57.292969 105.125 56.8125 105.125 55.988281 C 105.125 55.417969 104.730469 55.148438 104.09375 54.84375 C 103.65625 54.644531 103.378906 54.476562 103.378906 54.207031 C 103.378906 53.878906 103.730469 53.617188 104.285156 53.617188 M 79.871094 53.136719 L 78.46875 53.136719 L 78.34375 53.734375 L 78.921875 53.734375 L 78.386719 56.25 C 78.34375 56.433594 78.324219 56.585938 78.324219 56.6875 C 78.324219 57.109375 78.609375 57.292969 79.007812 57.292969 C 79.234375 57.292969 79.476562 57.21875 79.65625 57.117188 L 79.765625 56.585938 C 79.671875 56.636719 79.476562 56.703125 79.359375 56.703125 C 79.234375 56.703125 79.167969 56.652344 79.167969 56.535156 C 79.167969 56.484375 79.183594 56.375 79.199219 56.292969 Z M 75.835938 53.726562 C 75.742188 53.660156 75.589844 53.617188 75.429688 53.617188 C 74.53125 53.617188 73.589844 54.617188 73.589844 55.828125 C 73.589844 56.417969 73.859375 56.710938 74.304688 56.710938 C 74.640625 56.710938 74.894531 56.578125 75.078125 56.367188 C 75.273438 56.140625 75.382812 55.8125 75.464844 55.433594 Z M 76.113281 56.257812 C 76.097656 56.34375 76.078125 56.453125 76.078125 56.5 C 76.078125 56.621094 76.148438 56.671875 76.273438 56.671875 C 76.390625 56.671875 76.585938 56.601562 76.675781 56.550781 L 76.566406 57.082031 C 76.390625 57.183594 76.148438 57.257812 75.917969 57.257812 C 75.625 57.257812 75.339844 57.125 75.265625 56.8125 C 75.019531 57.082031 74.589844 57.292969 74.101562 57.292969 C 73.261719 57.292969 72.75 56.710938 72.75 55.84375 C 72.75 54.433594 73.910156 53.0625 75.472656 53.0625 C 75.75 53.0625 76.097656 53.128906 76.332031 53.253906 L 76.785156 53.136719 Z M 82.742188 53.769531 L 82.742188 53.136719 L 81.625 53.136719 L 81.496094 53.734375 L 82.078125 53.734375 L 81.328125 57.21875 L 82.152344 57.21875 L 82.539062 55.441406 C 82.664062 54.851562 82.792969 54.304688 83.09375 54.003906 C 83.253906 53.84375 83.457031 53.75 83.742188 53.75 C 83.835938 53.75 83.960938 53.769531 84.003906 53.777344 L 84.15625 53.09375 C 84.097656 53.078125 83.953125 53.0625 83.867188 53.0625 C 83.347656 53.0625 82.976562 53.363281 82.742188 53.769531 M 80.160156 51.894531 C 80.160156 52.203125 79.847656 52.488281 79.546875 52.488281 C 79.320312 52.488281 79.148438 52.320312 79.148438 52.09375 C 79.148438 51.78125 79.445312 51.507812 79.753906 51.507812 C 79.984375 51.507812 80.160156 51.664062 80.160156 51.894531 "/>
<path style=" stroke:none;fill-rule:nonzero;fill:rgb(11.376953%,23.535156%,20.384216%);fill-opacity:1;" d="M 116.5 6.027344 C 114.210938 6.445312 111.542969 7.425781 110.238281 7.871094 C 109.714844 8.050781 108.402344 8.570312 108.402344 8.570312 C 108.402344 8.570312 109.203125 7.957031 109.8125 7.570312 C 111.183594 6.707031 113.632812 5.804688 115.164062 4.757812 C 119.082031 2.078125 119.355469 0 119.355469 0 C 119.355469 0 117.300781 0.296875 114.824219 1.898438 C 113.902344 2.496094 112.234375 3.59375 110.960938 5.132812 C 107.941406 8.78125 104.792969 10.445312 102.921875 11.816406 C 103.148438 11.488281 103.363281 11.148438 103.582031 10.816406 C 103.652344 10.714844 103.71875 10.613281 103.789062 10.515625 C 103.925781 10.324219 104.0625 10.132812 104.207031 9.949219 C 104.238281 9.902344 104.273438 9.859375 104.308594 9.816406 C 104.421875 9.667969 104.535156 9.523438 104.648438 9.378906 C 104.671875 9.355469 104.691406 9.328125 104.710938 9.300781 C 105.511719 8.308594 106.363281 7.355469 107.136719 6.339844 C 107.222656 6.230469 107.308594 6.117188 107.386719 6.011719 C 108.695312 4.230469 109.726562 2.335938 109.796875 0.0976562 C 109.777344 0.0859375 109.816406 0.105469 109.796875 0.0976562 C 107.667969 1.050781 105.414062 3.945312 104.3125 6.378906 C 103.546875 8.070312 103.1875 10.605469 102.027344 12.113281 C 101.253906 13.101562 99.84375 13.917969 98.675781 14.886719 C 99.3125 13.835938 99.660156 12.613281 99.679688 12.546875 C 101.292969 6.929688 98.992188 4.609375 98.992188 4.609375 C 98.992188 4.609375 97.476562 5.796875 97.65625 9.433594 C 97.679688 9.941406 97.847656 10.488281 97.960938 10.980469 C 98.070312 11.480469 98.203125 11.976562 98.300781 12.480469 C 98.5 13.539062 98.347656 14.46875 97.671875 15.328125 C 97.152344 15.980469 96.542969 16.496094 95.933594 17.058594 C 94.632812 18.257812 93.300781 19.535156 92.402344 21.074219 C 90.644531 24.089844 90.511719 26.59375 90.511719 26.59375 L 91.453125 26.59375 C 91.453125 26.59375 91.574219 24.289062 92.558594 22.847656 C 93.371094 21.730469 94.820312 21.402344 96.191406 21.546875 C 98.925781 21.84375 102.347656 23.472656 106.335938 21.28125 C 103.507812 19.652344 99.046875 20.011719 97.601562 20.171875 C 97.402344 20.195312 97.210938 20.21875 97.019531 20.246094 C 96.707031 20.289062 96.390625 20.335938 96.078125 20.394531 C 95.589844 20.480469 95.097656 20.578125 94.621094 20.714844 C 94.488281 20.753906 94.355469 20.792969 94.222656 20.839844 C 94.191406 20.851562 94.160156 20.863281 94.128906 20.875 C 94.035156 20.910156 93.941406 20.949219 93.847656 20.988281 C 93.765625 21.023438 93.683594 21.0625 93.601562 21.101562 C 93.570312 21.117188 93.539062 21.132812 93.511719 21.144531 C 93.402344 21.203125 93.292969 21.261719 93.1875 21.328125 C 94.042969 19.878906 94.992188 18.96875 95.71875 18.445312 C 97.417969 17.222656 99.1875 17.707031 102.4375 18.238281 C 110.503906 19.558594 112.765625 17.703125 112.765625 17.703125 C 112.765625 17.703125 110.609375 16.207031 105.554688 16.054688 C 104.285156 16.015625 102.402344 16.007812 100.839844 16.21875 C 99.386719 16.417969 97.976562 16.628906 96.753906 17.21875 C 96.847656 17.128906 96.890625 17.089844 96.972656 17.011719 L 97.097656 16.910156 C 97.097656 16.90625 97.101562 16.90625 97.101562 16.902344 C 97.273438 16.765625 97.5 16.582031 97.621094 16.476562 C 98.199219 15.996094 98.800781 15.542969 99.40625 15.09375 C 101.109375 13.832031 102.886719 12.726562 104.316406 12.726562 C 107.027344 12.726562 108.992188 14.113281 111.539062 14.402344 C 114.609375 14.75 116.460938 14.011719 116.460938 14.011719 C 116.460938 14.011719 115.644531 12.578125 111.898438 11.832031 C 108.074219 11.066406 105.550781 11.554688 103.601562 12.148438 C 104.28125 11.730469 107.039062 9.523438 109.925781 8.75 C 111.972656 8.203125 114.386719 8.652344 116.285156 8.503906 C 117.429688 8.402344 118.875 8.152344 119.96875 7.773438 C 122.257812 6.980469 122.46875 6.242188 122.46875 6.242188 C 122.46875 6.242188 120.480469 5.292969 116.5 6.027344 "/>
</g>
</svg>

<svg xmlns="http://www.w3.org/2000/svg" width="176pt" height="59pt" viewBox="0 0 176 59"><path d="M0 0h176v59H0z" style="fill:#f0f9fb;fill-opacity:1;stroke:none"/><path d="M86.898 46.05V30.677h-2.12v11.156c0 2.457-.344 3.242-1.329 4.344-.945 1.058-2.308 1.476-3.863 1.476-2.797 0-4.656-1.765-4.621-5.918.043-5.015 5.039-9.43 5.039-9.43v-1.632h-5.797v1.633h3.816c-.113.136-5.18 4.578-5.18 10.117 0 2.844 1.09 6.973 6.372 6.973 2.195 0 4.601-1.094 5.789-3.356-.152 3.285 2.496 3.227 3.808 2.781v-1.433c-.714.195-1.914.347-1.914-1.336m8.965-11.093c0-1.855 1.227-2.875 3.957-2.875 1.59 0 3.371.414 4.317.871V31.02c-1.172-.418-2.766-.684-4.168-.684-3.297 0-6.29 1.441-6.29 4.773 0 5.907 9.446 4.352 9.446 9.399 0 1.668-1.07 3.125-4.215 3.125-1.781 0-3.828-.492-5.379-1.363v1.988c1.477.644 3.446 1.137 5.266 1.137 4.242 0 6.476-2.2 6.476-5.114 0-6.066-9.41-4.855-9.41-9.324m-32.347-1.55-.38-2.731H59.06v1.629h2.449v16.75h2.12v-11.38c0-5.296 2.614-5.405 4.509-5.405.379 0 .758.035 1.023.074V30.41a9 9 0 0 0-.984-.074c-2.121 0-3.75 1.137-4.66 3.07M46.69 47.633c-.574 0-2.394-.09-3.636-.281V37.238c0-3.468 1.535-5.273 5.039-5.273 3.562 0 5.265 2.574 5.265 7.652 0 4.852-1.402 8.016-6.668 8.016m1.594-17.297c-1.515 0-2.73.34-3.637.91-.722.453-1.367 1.098-1.707 1.703l-.265-2.273h-4.192v1.629h2.45v24.918h2.12v-8.246c1.137.23 2.426.418 3.676.418 6.29 0 8.79-3.942 8.79-9.813 0-5.496-2.422-9.246-7.235-9.246M9.02 29.286c2.609 0 4.296 1.523 4.964 3.694l1.844-.5c-.262-1.085-.871-2.218-1.523-2.914-1.262-1.347-3.086-2.043-5.262-2.043C3.433 27.523 0 31.785 0 38.395c0 6.914 3 11 9.129 11 2.219 0 4.59-.829 5.805-1.739V45.57c-1.57 1.2-3.805 1.907-5.454 1.907-5.304 0-7.32-3.649-7.32-9.125 0-5.914 2.66-9.067 6.86-9.067m24.636 19.648c0 3.449-.113 4.703-1.172 6.218-1.402 2.008-4.054 2.653-6.289 2.653-1.972 0-4.32-.418-5.683-1.098v-1.746c1.398.723 3.902 1.215 5.531 1.215 1.895 0 3.484-.57 4.469-1.82.797-1.024 1.023-1.864 1.023-4.743v-2.91c-1.25 2.047-3.484 2.692-5.719 2.692-1.898 0-3.675-.72-4.738-1.82-1.324-1.364-1.476-3.333-1.476-5.153V30.676h2.12v11.597c0 2.082.188 3.22 1.098 4.164.797.836 2.012 1.215 3.41 1.215 1.555 0 3.032-.418 3.98-1.476.985-1.102 1.325-2.504 1.325-4.89v-10.61h2.121z" style="stroke:none;fill-rule:nonzero;fill:#1d3c34;fill-opacity:1"/><path d="M94.602 53.727a.7.7 0 0 0-.403-.11c-.898 0-1.844 1-1.844 2.211 0 .59.27.883.72.883a.99.99 0 0 0 .773-.344c.191-.226.3-.554.382-.933Zm.277 2.53a2 2 0 0 0-.031.243c0 .121.066.172.191.172.117 0 .313-.07.406-.121l-.11.531c-.179.102-.42.176-.647.176-.293 0-.583-.133-.657-.446-.246.27-.672.481-1.16.481-.84 0-1.355-.582-1.355-1.45 0-1.41 1.16-2.78 2.726-2.78.278 0 .621.066.856.19l.457-.116Zm-6.098-.663c-.101.203-.219.539-.277.773.027-.27.016-.554-.008-.773l-.242-2.457h-.758l.098.89-.84 1.559a4.7 4.7 0 0 0-.328.781 8 8 0 0 0-.031-.765l-.29-2.465h-.804l.539 4.082h.62l1.235-2.25.254 2.25h.64l2.153-4.082h-.699Zm11.063-.774c-.125.578-.262 1.043-.48 1.356-.2.285-.512.476-.868.476-.191 0-.367-.05-.469-.152-.109-.105-.16-.258-.16-.437 0-.141.043-.368.102-.645l.488-2.281h-.824l-.488 2.261c-.06.29-.11.559-.11.766 0 .32.14.586.344.766s.512.332.902.332c.371 0 .89-.188 1.125-.434l-.074.348c-.078.36-.246.707-.488.949a1.1 1.1 0 0 1-.567.29 2 2 0 0 1-.257.023c-.41 0-.875-.11-1.211-.356l-.125.59c.343.219.812.316 1.234.328h.059c.746 0 1.53-.344 1.906-1.02.156-.28.226-.605.293-.917l.855-3.926h-.828Zm4.441-1.203c.336 0 .742.102 1 .235l.117-.563c-.25-.125-.715-.227-1.074-.227-1 0-1.734.512-1.734 1.262 0 .59.457.875.941 1.094.559.25.8.395.8.695 0 .348-.335.617-.933.617-.414 0-.875-.109-1.21-.355l-.126.59c.36.226.856.328 1.293.328 1.028 0 1.766-.48 1.766-1.305 0-.57-.395-.84-1.031-1.144-.438-.2-.715-.367-.715-.637 0-.328.351-.59.906-.59m-24.414-.48H78.47l-.125.597h.578l-.535 2.516a2 2 0 0 0-.063.438c0 .421.285.605.684.605.226 0 .469-.074.648-.176l.11-.531c-.094.05-.29.117-.407.117-.125 0-.191-.05-.191-.168 0-.05.016-.16.031-.242Zm-4.035.59a.74.74 0 0 0-.406-.11c-.899 0-1.84 1-1.84 2.211 0 .59.27.883.715.883.336 0 .59-.133.773-.344.195-.226.305-.554.387-.933Zm.277 2.53a2 2 0 0 0-.035.243c0 .121.07.172.195.172.118 0 .313-.07.403-.121l-.11.531a1.36 1.36 0 0 1-.648.176c-.293 0-.578-.133-.652-.446-.246.27-.676.481-1.164.481-.84 0-1.352-.582-1.352-1.45 0-1.41 1.16-2.78 2.723-2.78.277 0 .625.066.859.19l.453-.116Zm6.63-2.487v-.633h-1.118l-.129.597h.582l-.75 3.485h.824l.387-1.778c.125-.59.254-1.136.555-1.437a.86.86 0 0 1 .648-.254c.094 0 .219.02.262.027l.152-.683a1.5 1.5 0 0 0-.289-.032c-.52 0-.89.301-1.125.708m-2.582-1.875c0 .308-.312.593-.613.593a.387.387 0 0 1-.399-.394c0-.313.297-.586.606-.586.23 0 .406.156.406.387" style="stroke:none;fill-rule:nonzero;fill:#006f62;fill-opacity:1"/><path d="M116.5 6.027c-2.29.418-4.957 1.399-6.262 1.844-.523.18-1.836.7-1.836.7s.801-.614 1.41-1c1.372-.864 3.82-1.766 5.352-2.813C119.082 2.078 119.355 0 119.355 0s-2.054.297-4.53 1.898c-.923.598-2.59 1.696-3.864 3.235-3.02 3.648-6.168 5.312-8.04 6.683.227-.328.442-.668.661-1q.104-.153.207-.3c.137-.192.273-.383.418-.567q.047-.07.102-.133.17-.221.34-.437.033-.036.062-.078c.8-.992 1.652-1.946 2.426-2.961.086-.11.172-.223.25-.328 1.308-1.782 2.34-3.676 2.41-5.914-.02-.012.02.007 0 0-2.129.953-4.383 3.847-5.484 6.28-.766 1.692-1.126 4.227-2.286 5.735-.773.989-2.183 1.805-3.351 2.774.636-1.051.984-2.274 1.004-2.34 1.613-5.617-.688-7.938-.688-7.938s-1.515 1.188-1.336 4.825c.024.507.192 1.054.305 1.546.11.5.242.997.34 1.5.199 1.06.047 1.989-.63 2.848-.519.652-1.128 1.168-1.737 1.73-1.301 1.2-2.633 2.477-3.532 4.016-1.757 3.016-1.89 5.52-1.89 5.52h.941s.121-2.305 1.106-3.746c.812-1.118 2.261-1.446 3.632-1.301 2.735.297 6.157 1.926 10.145-.266-2.828-1.629-7.29-1.27-8.734-1.11-.2.024-.391.048-.582.075-.313.043-.63.09-.942.149-.488.085-.98.183-1.457.32-.133.039-.266.078-.398.125l-.094.035q-.141.054-.281.113-.123.054-.246.114l-.09.043q-.166.085-.325.183c.856-1.45 1.805-2.36 2.532-2.883 1.699-1.222 3.469-.738 6.719-.207 8.066 1.32 10.328-.535 10.328-.535s-2.157-1.496-7.211-1.648c-1.27-.04-3.153-.047-4.715.164-1.453.199-2.863.41-4.086 1l.219-.207.125-.102c0-.004.004-.004.004-.008.171-.136.398-.32.52-.425.577-.48 1.179-.934 1.784-1.383 1.703-1.262 3.48-2.367 4.91-2.367 2.711 0 4.676 1.386 7.223 1.675 3.07.348 4.922-.39 4.922-.39s-.816-1.434-4.563-2.18c-3.824-.766-6.347-.277-8.296.316.68-.418 3.437-2.625 6.324-3.398 2.047-.547 4.46-.098 6.36-.246 1.144-.102 2.589-.352 3.683-.73 2.289-.794 2.5-1.532 2.5-1.532s-1.989-.949-5.969-.215" style="stroke:none;fill-rule:nonzero;fill:#1d3c34;fill-opacity:1"/></svg>
